X: 374
T:Tant vous aimme
N: Derived from Jos2833-Tant_vous_aimme.krn
C: Josquin des Prez
%%abc-version 2.0
%%abcx-abcm2ps-target-version 5.9.1 (29 Sep 2008)
%%abc-creator hum2abc beta
%%abcx-conversion-date 2019/02/12 16:15:55
%%abc-edited-by Jesse Rodin
%%abc-edited-by Will Watson 23/10/11
%%abcx-initial-encoding-date 2011/10/11/
%%humdrum-veritas 2706395427
%%humdrum-veritas-data 3490180113
%%linebreak <none>
%%barnumbers 0
L: 1/4
M: 2/1
Q: 1/2=120
%%staves [1 2 3 4]
V: 1 clef=treble
V: 2 clef=treble-8
V: 3 clef=treble-8
V: 4 clef=bass
K: F
[V:1] z8 | 
[V:2] e8 | 
[V:3] z8 | 
[V:4] z8 | 
[V:1] z4A4- | 
[V:2] a8 | 
[V:3] A8 | 
[V:4] z8 | 
[V:1] A4d4- | 
[V:2] f6ed | 
[V:3] d8 | 
[V:4] D,8 | 
[V:1] d2c2B4- | 
[V:2] d8 | 
[V:3] B6AG | 
[V:4] G,8- | 
[V:1] B2AGG4- | 
[V:2] z8 | 
[V:3] G8 | 
[V:4] G,4E,4 | 
[V:1] G2ABc2A2- | 
[V:2] e4e2e2 | 
[V:3] z8 | 
[V:4] C,8 | 
[V:1] A2GFE2F2 | 
[V:2] d4c4 | 
[V:3] A4A2A2 | 
[V:4] D,4A,2A,2 | 
[V:1] G2B2A2c2- | 
[V:2] z8 | 
[V:3] G4F4 | 
[V:4] B,4C4 | 
[V:1] cBAGA4 | 
[V:2] e4a4 | 
[V:3] z4A4 | 
[V:4] A,8 | 
[V:1] A4d4- | 
[V:2] f6ed | 
[V:3] d8 | 
[V:4] z4D,4 | 
[V:1] d2cBB4- | 
[V:2] d8 | 
[V:3] B6AG | 
[V:4] G,4G,4- | 
[V:1] B2AGA2B2 | 
[V:2] z4d4 | 
[V:3] G4z4 | 
[V:4] G,2F,E,F,2G,2 | 
[V:1] G2c3BA2- | 
[V:2] e4c4 | 
[V:3] G4A4 | 
[V:4] C,4F,3E, | 
[V:1] A2GFE4 | 
[V:2] d4e4- | 
[V:3] F4G4 | 
[V:4] D,4C,4- | 
[V:1] z4A4 | 
[V:2] e4f4- | 
[V:3] A8 | 
[V:4] C,4D,4 | 
[V:1] d6cB | 
[V:2] f4d4 | 
[V:3] B8 | 
[V:4] B,,2B,,2B,4 | 
[V:1] B3A/G/A2B2 | 
[V:2] z4d4 | 
[V:3] G4z4 | 
[V:4] z8 | 
[V:1] G4z4 | 
[V:2] e4c4 | 
[V:3] G4A4 | 
[V:4] z2C,2F,4 | 
[V:1] z4z2G2 | 
[V:2] d4e4- | 
[V:3] F4G4 | 
[V:4] D,4C,4- | 
[V:1] c4z2A2 | 
[V:2] e4f4- | 
[V:3] A8 | 
[V:4] C,4D,4 | 
[V:1] d6d2 | 
[V:2] f4d4 | 
[V:3] B8 | 
[V:4] B,,2B,,2B,4 | 
[V:1] B6G2 | 
[V:2] z4d4 | 
[V:3] G4z4 | 
[V:4] z8 | 
[V:1] G2G2E3C | 
[V:2] g4g4 | 
[V:3] G4c4 | 
[V:4] z8 | 
[V:1] C4z2C2 | 
[V:2] e4f4 | 
[V:3] c4A4 | 
[V:4] A,4C2C2 | 
[V:1] D2D2E4 | 
[V:2] g4a4 | 
[V:3] B4c4 | 
[V:4] B,4A,4 | 
[V:1] F3EC4 | 
[V:2] z4e4 | 
[V:3] d4z4 | 
[V:4] D,4A,4 | 
[V:1] z8 | 
[V:2] a8 | 
[V:3] A8 | 
[V:4] z8 | 
[V:1] A4d4- | 
[V:2] f6ed | 
[V:3] d8 | 
[V:4] D,8 | 
[V:1] d2cBB4- | 
[V:2] d8 | 
[V:3] B6AG | 
[V:4] G,8- | 
[V:1] B2AGG4- | 
[V:2] z8 | 
[V:3] G8 | 
[V:4] G,4E,4 | 
[V:1] G2ABc2A2- | 
[V:2] e4e2e2 | 
[V:3] z8 | 
[V:4] C,8 | 
[V:1] A2GFE2F2 | 
[V:2] d4c4 | 
[V:3] A4A2A2 | 
[V:4] D,4A,2A,2 | 
[V:1] G2B2A2c2- | 
[V:2] z8 | 
[V:3] G4F4 | 
[V:4] B,4C4 | 
[V:1] cBAGA4 | 
[V:2] e4a4 | 
[V:3] z4A4 | 
[V:4] A,8 | 
[V:1] A4d4- | 
[V:2] f6ed | 
[V:3] d8 | 
[V:4] z4D,4 | 
[V:1] d2cBB4- | 
[V:2] d8- | 
[V:3] B6AG | 
[V:4] G,8 | 
[V:1] B2AGG4- | 
[V:2] d8- | 
[V:3] G8- | 
[V:4] B,6A,G, | 
[V:1] G8 |]  
[V:2] d8 |]  
[V:3] G8 |]  
[V:4] G,8 |]  



